svgs/1F44F.svg

<svg xmlns="http://www.w3.org/2000/svg" xmlns:xlink="http://www.w3.org/1999/xlink" preserveAspectRatio="none" viewBox="0 0 72 72"><defs><path id="a" fill="#FAC036" d="M102.6 39.25q-3.95 2.95-5.25 7.05-1.25 4.05.25 8.7l5.1 13.4q.55 1.15-.5 2.05-1.05.95-2 .2-2.55-2.05-7.85-7.35l-4.85-4.9q-2-1.85-14.45-14.25-12-11.9-12.7-12.5Q58 29.5 55.6 28.9q-2.65-.7-4.6.8-2.25 1.7-2.5 3.95-.35 2.4 1.7 4.95L73 62.3q1 1 .2 1.95-.75.9-1.8-.05L42.75 34.95Q40.6 32.7 37.7 32.4q-2.9-.35-4.85 1.5-1.9 1.85-1.8 4.5.1 2.7 2.2 5 .9.95 27.95 29.05 1.15 1.15.2 2-.75.85-1.75-.2L35.4 49.55q-2.2-2.15-4.5-2.6-2.6-.5-4.6 1.35-2 1.9-2.05 4.55-.05 2.85 2.15 4.95l25.4 26.25q.2 0 .35.6.15.7-.4 1.25-.95.9-1.95-.15-4.1-4.25-8.35-8.6-8.5-8.75-9.15-9.2-4.3-3.15-7.85.6-3.8 3.95.65 9.25 26.5 27.45 28 28.85l6.8 6.15q7.7 6.7 12.15 9.3 3.75 2.25 6.8 3.25 4.5 1.45 8.55 1.4 4.7 0 9.2-1.75 4.25-1.65 8.3-4.7l3.55-2.9q1.75-1.5 3.3-3.15 3-3.1 5.7-6.8 2.45-3.5 4.15-7.2 1.7-3.75 2.35-7.15.65-3.1.5-6.35-.05-1.7-.75-4.75-.6-1.95-1.05-2.85l-.5-1-14.35-37.5q-.55-1.6-2.15-2-1.65-.45-3.05.6z"/><path id="b" fill="#FAC036" d="M82.85 45.75q-.6 1.25-1.8.95-3.1-.85-10.1-3.65L64.6 40.4q-2.7-1-18.85-7.5Q30 26.55 29.2 26.25q-3-1.05-5.45-.65-2.7.4-3.95 2.55-1.4 2.4-.8 4.6.65 2.35 3.5 3.85l30.25 12.95q1.3.55.95 1.75-.35 1.15-1.7.7L14.25 36.2q-2.85-1.25-5.65-.45-2.8.8-3.9 3.3-1.05 2.45.1 4.85 1.15 2.45 4 3.7Q35.55 59 45.85 63.5q1.45.6.95 1.8l-.35.45q-.5.4-1.35.05L13.15 52.45Q10.3 51.3 8 51.8q-2.6.55-3.7 3.05t-.15 5q1.05 2.6 3.9 3.7l33.65 14.3.5.45q.45.55.15 1.25-.35.8-1.15.8l-.7-.15q-5.45-2.3-11.05-4.7-11.2-4.7-12-4.9-5.2-1.15-7 3.6-2 5.15 4.2 8.3 35.1 14.95 37 15.7l8.7 3q9.7 3.15 14.8 3.85 4.6.6 7.5.35 4.55-.35 8.4-2.05 4.2-1.8 7.8-5.2 3.2-3 5.85-7.55l2.1-4.05q.85-1.6 1.85-4.2 1.55-3.95 2.6-8.45.95-4.4 1-8.3.15-3.7-.6-7.5-.6-3-2-6-.75-1.7-2.55-4.1-1.25-1.55-2.1-2.25l-.8-.7-27.85-28.9q-1.1-1.25-2.75-1-1.65.2-2.55 1.7-2.5 4.25-2.05 8.55.4 4.2 3.6 7.85l9.9 10.4q.9.85.35 2.1z"/><path id="c" fill="#E48C15" d="M98.25 46.85q.9-2.85 3.55-6.05 1.25-1.5 1.9-2.05-14.1 5.1-5.75 24.05.65 1.5 1.7 3.45.6 1.25.1 1.5-.9.55-2.45-.65-1.55-1.5-2-1.9-14.7-15-24.2-25.2-9.15-9.85-13.3-12.05-4.9-2.6-9.2 1.3-3.15 2.85-1.8 6.95-8.85-9.1-15.15-3.05-2.4 2.2-2.45 5.4-.05 3.4 2.55 6.5-.85-.15-2.35-.05-3.05.2-5.35 2.45-3.15 3.05-1.35 7.95 1.25 3.4 3.95 6.3l2.5 2.65q-2.05-.1-3.3.3-1.35.5-2.85 1.95-3.6 3.45-2.3 8.65 1.1 4.4 4.9 7.85 7.55 6.9 24.45 23 15.5 13.65 28.05 19.05 1 .4-1.5-1.6-2.15-1.75-3.95-3-9.45-6.7-14.95-11.5-1.6-1.45-13.05-12.3Q26.5 79.4 24.7 76.95q-3.15-4.15.45-7.6 3.5-3.45 6.85-.75 1 .75 11.05 9.65 9.7 8.45 10 8.05l.95-.75q.55-.5.2-.8-6.3-5.5-9.15-8.5l-17-17.45q-2.65-2.7-2.8-5.35-.2-2.35 1.5-3.95 1.55-1.55 3.85-1.55 2.5.05 4.4 1.95 26.9 25.55 27.55 25 .4-.25.7-.65.55-.75-.1-1.35L35.75 46q-5.5-5.4-2.35-9.75 1.2-1.65 3.15-2.1 2-.5 3.35.65 6.85 5.75 19.45 18.45 5.05 5.1 12.8 11.9.95.9 1.3-.45.3-1.4-1-2.75-16.5-16-16.5-16.05-3.2-3.2-4.7-4.9-.85-1-1.15-1.7-2.2-4.55 1.25-7.85 3.55-3.35 7.7 1 3.7 3.85 17.3 17.35 3.8 3.8 11.15 11.6 6.45 6.55 6.85 6.9 5 4.3 7.3 2.6 1.75-1.25 1.3-3-.95-2.15-1.55-3.45-2.15-5.1-3.05-9.4-1.05-5.1-.1-8.2z"/><path id="d" fill="none" stroke="#444" stroke-linecap="round" stroke-linejoin="miter" stroke-miterlimit="10" stroke-width="2" d="M56.953 1.772l-3.6 11.306"/><path id="e" fill="none" stroke="#444" stroke-linecap="round" stroke-linejoin="miter" stroke-miterlimit="10" stroke-width="2" d="M23.878 12.797L17.86 5.625"/><path id="f" fill="none" stroke="#444" stroke-linecap="round" stroke-linejoin="miter" stroke-miterlimit="10" stroke-width="2" d="M29.672 1.772L28.35 12.206"/><path id="g" fill="none" stroke="#444" stroke-linecap="round" stroke-linejoin="miter" stroke-miterlimit="10" stroke-width="2" d="M63.366 12.037l-6.947 5.57"/></defs><use transform="scale(.5625)" xlink:href="#a"/><use transform="scale(.5625)" xlink:href="#b"/><use transform="scale(.5625)" xlink:href="#c"/><use xlink:href="#d"/><use xlink:href="#e"/><use xlink:href="#f"/><use xlink:href="#g"/></svg>

<svg xmlns="http://www.w3.org/2000/svg" version="1.1" xmlns:xlink="http://www.w3.org/1999/xlink" preserveAspectRatio="none" x="0px" y="0px" width="72px" height="72px" viewBox="0 0 72 72">
<defs>
<g id="Layer0_0_FILL">
<path fill="#FAC036" stroke="none" d="
M 102.6 39.25
Q 98.65 42.2 97.35 46.3 96.1 50.35 97.6 55
L 102.7 68.4
Q 103.25 69.55 102.2 70.45 101.15 71.4 100.2 70.65 97.65 68.6 92.35 63.3
L 87.5 58.4
Q 85.5 56.55 73.05 44.15 61.05 32.25 60.35 31.65 58 29.5 55.6 28.9 52.95 28.2 51 29.7 48.75 31.4 48.5 33.65 48.15 36.05 50.2 38.6
L 73 62.3
Q 74 63.3 73.2 64.25 72.45 65.15 71.4 64.2
L 42.75 34.95
Q 40.6 32.7 37.7 32.4 34.8 32.05 32.85 33.9 30.95 35.75 31.05 38.4 31.15 41.1 33.25 43.4 34.15 44.35 61.2 72.45 62.35 73.6 61.4 74.45 60.65 75.3 59.65 74.25
L 35.4 49.55
Q 33.2 47.4 30.9 46.95 28.3 46.45 26.3 48.3 24.3 50.2 24.25 52.85 24.2 55.7 26.4 57.8
L 51.8 84.05
Q 52 84.05 52.15 84.65 52.3 85.35 51.75 85.9 50.8 86.8 49.8 85.75 45.7 81.5 41.45 77.15 32.95 68.4 32.3 67.95 28 64.8 24.45 68.55 20.65 72.5 25.1 77.8 51.6 105.25 53.1 106.65
L 59.9 112.8
Q 67.6 119.5 72.05 122.1 75.8 124.35 78.85 125.35 83.35 126.8 87.4 126.75 92.1 126.75 96.6 125 100.85 123.35 104.9 120.3
L 108.45 117.4
Q 110.2 115.9 111.75 114.25 114.75 111.15 117.45 107.45 119.9 103.95 121.6 100.25 123.3 96.5 123.95 93.1 124.6 90 124.45 86.75 124.4 85.05 123.7 82 123.1 80.05 122.65 79.15
L 122.15 78.15 107.8 40.65
Q 107.25 39.05 105.65 38.65 104 38.2 102.6 39.25 Z"/>
</g>

<g id="Layer0_1_FILL">
<path fill="#FAC036" stroke="none" d="
M 82.85 45.75
Q 82.25 47 81.05 46.7 77.95 45.85 70.95 43.05
L 64.6 40.4
Q 61.9 39.4 45.75 32.9 30 26.55 29.2 26.25 26.2 25.2 23.75 25.6 21.05 26 19.8 28.15 18.4 30.55 19 32.75 19.65 35.1 22.5 36.6
L 52.75 49.55
Q 54.05 50.1 53.7 51.3 53.35 52.45 52 52
L 14.25 36.2
Q 11.4 34.95 8.6 35.75 5.8 36.55 4.7 39.05 3.65 41.5 4.8 43.9 5.95 46.35 8.8 47.6 35.55 59 45.85 63.5 47.3 64.1 46.8 65.3
L 46.45 65.75
Q 45.95 66.15 45.1 65.8
L 13.15 52.45
Q 10.3 51.3 8 51.8 5.4 52.35 4.3 54.85 3.2 57.35 4.15 59.85 5.2 62.45 8.05 63.55
L 41.7 77.85 42.2 78.3
Q 42.65 78.85 42.35 79.55 42 80.35 41.2 80.35
L 40.5 80.2
Q 35.05 77.9 29.45 75.5 18.25 70.8 17.45 70.6 12.25 69.45 10.45 74.2 8.45 79.35 14.65 82.5 49.75 97.45 51.65 98.2
L 60.35 101.2
Q 70.05 104.35 75.15 105.05 79.75 105.65 82.65 105.4 87.2 105.05 91.05 103.35 95.25 101.55 98.85 98.15 102.05 95.15 104.7 90.6
L 106.8 86.55
Q 107.65 84.95 108.65 82.35 110.2 78.4 111.25 73.9 112.2 69.5 112.25 65.6 112.4 61.9 111.65 58.1 111.05 55.1 109.65 52.1 108.9 50.4 107.1 48 105.85 46.45 105 45.75
L 104.2 45.05 76.35 16.15
Q 75.25 14.9 73.6 15.15 71.95 15.35 71.05 16.85 68.55 21.1 69 25.4 69.4 29.6 72.6 33.25
L 82.5 43.65
Q 83.4 44.5 82.85 45.75 Z"/>
</g>

<g id="Layer0_2_FILL">
<path fill="#E48C15" stroke="none" d="
M 98.25 46.85
Q 99.15 44 101.8 40.8 103.05 39.3 103.7 38.75 89.6 43.85 97.95 62.8 98.6 64.3 99.65 66.25 100.25 67.5 99.75 67.75 98.85 68.3 97.3 67.1 95.75 65.6 95.3 65.2 80.6 50.2 71.1 40 61.95 30.15 57.8 27.95 52.9 25.35 48.6 29.25 45.45 32.1 46.8 36.2 37.95 27.1 31.65 33.15 29.25 35.35 29.2 38.55 29.15 41.95 31.75 45.05 30.9 44.9 29.4 45 26.35 45.2 24.05 47.45 20.9 50.5 22.7 55.4 23.95 58.8 26.65 61.7
L 29.15 64.35
Q 27.1 64.25 25.85 64.65 24.5 65.15 23 66.6 19.4 70.05 20.7 75.25 21.8 79.65 25.6 83.1 33.15 90 50.05 106.1 65.55 119.75 78.1 125.15 79.1 125.55 76.6 123.55 74.45 121.8 72.65 120.55 63.2 113.85 57.7 109.05 56.1 107.6 44.65 96.75 26.5 79.4 24.7 76.95 21.55 72.8 25.15 69.35 28.65 65.9 32 68.6 33 69.35 43.05 78.25 52.75 86.7 53.05 86.3
L 54 85.55
Q 54.55 85.05 54.2 84.75 47.9 79.25 45.05 76.25
L 28.05 58.8
Q 25.4 56.1 25.25 53.45 25.05 51.1 26.75 49.5 28.3 47.95 30.6 47.95 33.1 48 35 49.9 61.9 75.45 62.55 74.9 62.95 74.65 63.25 74.25 63.8 73.5 63.15 72.9
L 35.75 46
Q 30.25 40.6 33.4 36.25 34.6 34.6 36.55 34.15 38.55 33.65 39.9 34.8 46.75 40.55 59.35 53.25 64.4 58.35 72.15 65.15 73.1 66.05 73.45 64.7 73.75 63.3 72.45 61.95 55.95 45.95 55.95 45.9 52.75 42.7 51.25 41 50.4 40 50.1 39.3 47.9 34.75 51.35 31.45 54.9 28.1 59.05 32.45 62.75 36.3 76.35 49.8 80.15 53.6 87.5 61.4 93.95 67.95 94.35 68.3 99.35 72.6 101.65 70.9 103.4 69.65 102.95 67.9 102 65.75 101.4 64.45 99.25 59.35 98.35 55.05 97.3 49.95 98.25 46.85 Z"/>
</g>

<path id="Layer0_3_1_STROKES" stroke="#444444" stroke-width="2" stroke-linejoin="miter" stroke-linecap="round" stroke-miterlimit="10" fill="none" d="
M 56.953125 1.7718749999999999
L 53.353125 13.078125"/>

<path id="Layer0_4_1_STROKES" stroke="#444444" stroke-width="2" stroke-linejoin="miter" stroke-linecap="round" stroke-miterlimit="10" fill="none" d="
M 23.878125 12.796875
L 17.859375 5.625"/>

<path id="Layer0_5_1_STROKES" stroke="#444444" stroke-width="2" stroke-linejoin="miter" stroke-linecap="round" stroke-miterlimit="10" fill="none" d="
M 29.671875 1.7718749999999999
L 28.349999999999998 12.206249999999999"/>

<path id="Layer0_6_1_STROKES" stroke="#444444" stroke-width="2" stroke-linejoin="miter" stroke-linecap="round" stroke-miterlimit="10" fill="none" d="
M 63.365625 12.0375
L 56.418749999999996 17.60625"/>
</defs>

<g id="Layer_1">
<g transform="matrix( 0.5625, 0, 0, 0.5625, 0,0) ">
<use xlink:href="#Layer0_0_FILL"/>
</g>

<g transform="matrix( 0.5625, 0, 0, 0.5625, 0,0) ">
<use xlink:href="#Layer0_1_FILL"/>
</g>

<g transform="matrix( 0.5625, 0, 0, 0.5625, 0,0) ">
<use xlink:href="#Layer0_2_FILL"/>
</g>

<g transform="matrix( 0.5625, 0, 0, 0.5625, 0,0) ">
<use xlink:href="#Layer0_3_1_STROKES" transform="matrix( 1.77777099609375, 0, 0, 1.77777099609375, 0,0) "/>
</g>

<g transform="matrix( 0.5625, 0, 0, 0.5625, 0,0) ">
<use xlink:href="#Layer0_4_1_STROKES" transform="matrix( 1.77777099609375, 0, 0, 1.77777099609375, 0,0) "/>
</g>

<g transform="matrix( 0.5625, 0, 0, 0.5625, 0,0) ">
<use xlink:href="#Layer0_5_1_STROKES" transform="matrix( 1.77777099609375, 0, 0, 1.77777099609375, 0,0) "/>
</g>

<g transform="matrix( 0.5625, 0, 0, 0.5625, 0,0) ">
<use xlink:href="#Layer0_6_1_STROKES" transform="matrix( 1.77777099609375, 0, 0, 1.77777099609375, 0,0) "/>
</g>
</g>
</svg>
